X:1
T:Zion Klagt, 87.87.77.88
T:Zion Klagt, 87.87.77.88
T:Johann Hermann Schein, 1623
T:Public Domain Courtesy of the Cyber Hymnal™
C:Johann Hermann Schein, 1623
Z:Public Domain
Z:Courtesy of the Cyber Hymnal™
%%score ( 1 2 ) ( 3 4 )
L:1/8
Q:1/4=130
M:none
K:D
V:1 treble 
V:2 treble 
V:3 bass 
V:4 bass 
V:1
 [DB]4 [DF]2 [CF]4 [FA]2 [DG]2 [DF]2 [B,E]4 [B,^D]4 | [^DF]4 [EG]4 [EA]2 [EG]2 [EF]2 [DF]2 E8 | %2
 [DB]4 [DF]2 [CF]4 [FA]2 [DG]2 [DF]2 [B,E]4 [B,^D]4 | [^DF]4 [EG]4 [EA]2 [EG]2 [EF]2 [DF]2 E8 | %4
 z2 [DB]4 [G=c]2 [Fd]2 [EG]2 [GB]2 [FA]2 [DG]8 | z2 [DF]4 [D^G]2 [CA]2 D2 [DE]2 [CE]2 D8 | %6
 z2 [DA]4 [EA]2 [FB]2 [Fc]2 [Fd]2 [Fd]2 [Fc]4 [^DB]4 | %7
 z2 [B,E]4 E2 [^DF]2 [EG]2 [EA]2 [EG]2 F4 [B,E]4 |] %8
V:2
 x24 | x16 E8 | x24 | x16 E8 | x24 | x10 D2 x2 D8 x2 | x24 | x6 E2 x6 (E2 ^D2) x6 |] %8
V:3
 [B,,F,]4 [B,,B,]2 [A,,C]4 [F,,C]2 [G,,B,]2 [D,A,]2 [E,G,]4 [B,,F,]4 | %1
 [B,,B,]4 [E,B,]4 [A,,=C]2 [E,B,]2 [B,,B,]2 [B,,B,]2 [E,^G,]8 | %2
 [B,,F,]4 [B,,B,]2 [A,,C]4 [F,,C]2 [G,,B,]2 [D,A,]2 [E,G,]4 [B,,F,]4 | %3
 [B,,B,]4 [E,B,]4 [A,,=C]2 [E,B,]2 [B,,B,]2 [B,,B,]2 [E,^G,]8 | %4
 z2 G,4 [E,G,]2 [D,A,]2 [=C,=C]2 [B,,D]2 [D,D]2 [G,,B,]8 | %5
 z2 [D,A,]4 [B,,E,]2 [A,,E,]2 [F,,A,]2 [G,,B,]2 [A,,A,]2 [D,F,]8 | %6
 z2 [D,F,]4 [C,A,]2 [B,,D]2 [^A,,C]2 [B,,B,]2 [D,B,]2 (B,2 ^A,2) [B,,B,]4 | %7
 z2 [E,G,]4 [=C,G,]2 [B,,B,]2 [E,B,]2 [A,,=C]2 [E,B,]2 [B,,B,]4 [E,^G,]4 |] %8
V:4
 x24 | x24 | x24 | x24 | x2 G,4 x18 | x24 | x16 F,4 x4 | x24 |] %8

